src/assets/icons/bed.svg

<svg width="19" height="19" viewBox="0 0 19 19" fill="none" xmlns="http://www.w3.org/2000/svg">
<path d="M17.2372 8.62466V4.39352C17.2372 3.46071 16.4782 2.70178 15.5454 2.70178H3.45459C2.52177 2.70178 1.76284 3.46071 1.76284 4.39352V8.62466C0.74768 8.90569 0 9.83714 0 10.9405V14.1554C0 14.4669 0.252566 14.7194 0.564062 14.7194H1.76284V15.7341C1.76284 16.0456 2.01541 16.2982 2.32691 16.2982C2.6384 16.2982 2.89097 16.0456 2.89097 15.7341V14.7194H16.109V15.7341C16.109 16.0456 16.3616 16.2982 16.6731 16.2982C16.9846 16.2982 17.2372 16.0456 17.2372 15.7341V14.7194H18.4359C18.7474 14.7194 19 14.4669 19 14.1554V10.9405C19 9.83714 18.2523 8.90569 17.2372 8.62466ZM2.89097 4.39352C2.89097 4.08277 3.14383 3.82991 3.45459 3.82991H15.5455C15.8562 3.82991 16.1091 4.08277 16.1091 4.39352V8.53738H14.7874V7.40514C14.7874 6.42059 13.9864 5.61962 13.0019 5.61962H10.7215C10.2493 5.61962 9.81966 5.80416 9.50004 6.10456C9.18041 5.8042 8.75076 5.61962 8.27858 5.61962H5.99817C5.01362 5.61962 4.21266 6.42062 4.21266 7.40514V8.53738H2.89097V4.39352ZM13.6593 7.40514V8.53738H10.0641V7.40514C10.0641 7.04261 10.359 6.74774 10.7215 6.74774H13.0019C13.3644 6.74774 13.6593 7.04265 13.6593 7.40514ZM8.9359 7.40514V8.53738H5.34067V7.40514C5.34067 7.04261 5.63562 6.74774 5.99806 6.74774H8.27847C8.64099 6.74774 8.9359 7.04265 8.9359 7.40514ZM17.8719 13.5913H1.12812V10.9405C1.12812 10.2375 1.70005 9.6655 2.40309 9.6655H16.5969C17.2999 9.6655 17.8719 10.2374 17.8719 10.9405V13.5913Z" fill="#696969"/>
</svg>

<svg xmlns="http://www.w3.org/2000/svg" width="19" height="19" fill="none"><path fill="#696969" d="M17.237 8.625V4.394c0-.933-.759-1.692-1.692-1.692H3.455c-.933 0-1.692.759-1.692 1.692v4.23A2.407 2.407 0 0 0 0 10.94v3.215c0 .312.253.564.564.564h1.199v1.015a.564.564 0 0 0 1.128 0V14.72h13.218v1.015a.564.564 0 0 0 1.128 0V14.72h1.199a.564.564 0 0 0 .564-.564v-3.214a2.407 2.407 0 0 0-1.763-2.316ZM2.891 4.394c0-.311.253-.564.564-.564h12.09c.311 0 .564.253.564.564v4.143h-1.322V7.405c0-.984-.8-1.785-1.785-1.785h-2.28c-.473 0-.902.184-1.222.485-.32-.3-.75-.485-1.221-.485h-2.28c-.985 0-1.786.8-1.786 1.785v1.132H2.89V4.394Zm10.768 3.011v1.132h-3.595V7.405c0-.362.295-.657.658-.657h2.28c.362 0 .657.295.657.657Zm-4.723 0v1.132H5.34V7.405c0-.362.295-.657.657-.657h2.28c.363 0 .658.295.658.657Zm8.936 6.186H1.128v-2.65c0-.704.572-1.276 1.275-1.276h14.194c.703 0 1.275.572 1.275 1.276v2.65Z"/></svg>
